X: 10
T:Morgiana in Ireland (#86)
M:6/8
L:1/8
S:O'Farrell's Pocket Companion 1804-10
K:G
D2 D G2 G|AGA B3|D2 D G2 A|B2 c BGE|
D2 D G2 G|AGA Bcd|edc BcA|G2 G BGE:|
d2 d dcB|e2 f g3|d2 d dcB|e2 f gdB|
ded dcB|efe efg|dec BcA|G2 A BGE:|
|:GFG B2 d|AGA c2 e|GFG G2 A|B2 c BGE|
GFG B2 d|c2 e B2 d|f2 g B2 d|G2 A BGE:||

